X:1
T:Title
%%score { ( 1 4 ) | ( 2 3 ) }
L:1/8
M:3/4
K:Eb
V:1 treble nm="Grand Piano"
V:4 treble 
V:2 bass 
V:3 bass 
V:1
 z2 z2[Q:1/4=100] [GB]A | G>G GG G[A,DF] | z2 z2 .B2 | [B,DF]3 [B,DF] [G,CE][B,DF] | %4
 [B,EG]4 [B,G]F | E>E EF GB | c4 BG | [B,DF]3 [B,DF] [G,CE][B,DF] |[M:2/4] [B,EG]4 |] %9
V:2
 z2 z2 z F | [E,B,E]>[E,B,E] [E,B,E][E,B,E] [E,B,E]B,, | E,4 G,E, | B,,3 B,, C,B,, | E,4 z A, | %5
 [E,G,B,]>[E,G,B,] [E,G,B,][E,A,E] [E,B,E][E,G,E] | [A,F]4[K:bass] [B,E]-[E,B,E] | B,,3 B,, C,B,, | %8
[M:2/4] E,4 |] %9
V:3
 z2 z2 [E,B,]2 | x6 | x6 | x6 | z2 z2 E,2 | x6 | z2 z2[K:bass] .G,2 | x6 |[M:2/4] x4 |] %9
V:4
 x6 | x6 | [B,EG]4 [B,E]-[B,EG] | x6 | x6 | x6 | x6 | x6 |[M:2/4] x4 |] %9

